packages/icons/svg/Outline/wifi.svg

<svg fill="none" height="24" viewBox="0 0 24 24" width="24" xmlns="http://www.w3.org/2000/svg"><path clip-rule="evenodd" d="m11.9996 4.00024c3.648 0 7.101 1.395 9.725 3.929.397.383.408 1.017.025 1.414-.196.203-.458.305-.719.305-.25 0-.501-.093-.695-.281-2.25-2.171-5.21-3.367-8.336-3.367-3.12603 0-6.08603 1.196-8.33603 3.367-.395.385-1.029.374-1.414-.024-.382-.397-.372-1.031.026-1.414 2.624-2.534 6.07699-3.929 9.72403-3.929zm.0004 4.99967c-2.42803 0-4.78803 1.00099-6.47503 2.74799-.382.398-.372 1.031.026 1.414.396.384 1.031.373 1.414-.024 1.311-1.359 3.14603-2.138 5.03503-2.138s3.724.779 5.035 2.138c.196.203.458.305.72.305.25 0 .501-.093.694-.281.398-.383.408-1.016.026-1.414-1.687-1.747-4.047-2.74799-6.475-2.74799zm-3.47303 6.40309c.93699-.904 2.17003-1.403 3.47303-1.403s2.536.499 3.473 1.403c.397.384.408 1.017.025 1.414-.196.204-.458.306-.72.306-.25 0-.501-.094-.694-.281-1.125-1.086-3.043-1.086-4.16803 0-.395.384-1.02901.373-1.414-.025-.383-.397-.372-1.03.025-1.414zm2.47303 3.5969c0-.552.447-1 1-1s1 .448 1 1-.447 1-1 1-1-.448-1-1z" fill="#6b7280" fill-rule="evenodd"/></svg>

<svg width="24" height="24" viewBox="0 0 24 24" fill="none" xmlns="http://www.w3.org/2000/svg">
<g id="Icon/Outline/wifi">
<path id="Mask" fill-rule="evenodd" clip-rule="evenodd" d="M11.9996 4.00018C15.6476 4.00018 19.1006 5.39518 21.7246 7.92918C22.1216 8.31218 22.1326 8.94618 21.7496 9.34318C21.5536 9.54618 21.2916 9.64818 21.0306 9.64818C20.7806 9.64818 20.5296 9.55518 20.3356 9.36718C18.0856 7.19618 15.1256 6.00018 11.9996 6.00018C8.87363 6.00018 5.91363 7.19618 3.66363 9.36718C3.26863 9.75218 2.63463 9.74118 2.24963 9.34318C1.86763 8.94618 1.87763 8.31218 2.27563 7.92918C4.89963 5.39518 8.35263 4.00018 11.9996 4.00018ZM12 8.99998C9.57203 8.99998 7.21203 10.001 5.52503 11.748C5.14303 12.146 5.15303 12.779 5.55103 13.162C5.94703 13.546 6.58203 13.535 6.96503 13.138C8.27603 11.779 10.111 11 12 11C13.889 11 15.724 11.779 17.035 13.138C17.231 13.341 17.493 13.443 17.755 13.443C18.005 13.443 18.256 13.35 18.449 13.162C18.847 12.779 18.857 12.146 18.475 11.748C16.788 10.001 14.428 8.99998 12 8.99998ZM8.52703 15.403C9.46403 14.499 10.697 14 12 14C13.303 14 14.536 14.499 15.473 15.403C15.87 15.787 15.881 16.42 15.498 16.817C15.302 17.021 15.04 17.123 14.778 17.123C14.528 17.123 14.277 17.029 14.084 16.842C12.959 15.756 11.041 15.756 9.91603 16.842C9.52103 17.226 8.88703 17.215 8.50203 16.817C8.11903 16.42 8.13003 15.787 8.52703 15.403ZM11 19C11 18.448 11.447 18 12 18C12.553 18 13 18.448 13 19C13 19.552 12.553 20 12 20C11.447 20 11 19.552 11 19Z" fill="#000000"/>
</g>
</svg>
